X:16
T:Duke of York’s Return from Holland. JJo.016
S:J.Jones MS,1801,N.Shrops.
N:Key given as G, but certainly not!
Z:Neil Brookes 2006
R:March
M:4/4
L:1/8
Q:1/2=80
K:C
g|”_Key sig. G in MS”g3c’e3g|c2c>cc3f|egc’b agfe|d2d>dd3g|!
g3c’e3g|c2c>cc3a|agfe gfed|c2c>cc3::!
d|d3ef2 g/f/e/d/|e3fg2 a/g/f/e/|g3ae3c|defd cBAG|!
c3eg2fe|fgab c’3b|agfe gfed|c2c>cc3:|

